X: 63
T:Lady of the Lake,bass part. JNu.35
M:6/8
Q:120
S:James Nuttall MS,c1830,Rossendale,East Lancs.
R:Jig
O:England
A:East Lancashire
N:The bottom half of the staff is obscured on the last line in my copy,
N:so treat my interpretation with the contempt it no doubt deserves
Z:vmp.Chris Partington
K:A
"thirdo,read as bass clef"z|F2FF2F|F2zF2z|F2FF2F|dccc2z|!
F2zF2z|F2zF2z|A2zB2z|FFFF2:|!
|:F2zc2z|f2zF2z|f2zf2z|c2zc2z|!
F2zF2z|F2zF2z|F2zG2z|c2zc2z:|]
